public/images/poses-lg/EasyPose.svg

<svg width="800" height="800" fill="none" xmlns="http://www.w3.org/2000/svg"><path d="M456.156 654.259c12.937 23.894 12.693 33.503 27.479 53.209 14.787 19.708 33.591 18.639 37.534 38.346 3.943 19.707-21.514 38.517-93.484 36.052-71.965-2.462-104.807-11.578-123.476-4.743-18.671 6.836-14.788 21.619-28.096 16.999-13.31-4.62-11.461-29.932-5.917-36.769 5.546-6.838 14.974-9.239 25.881-6.465 10.904 2.771 32.286.923 42.143-.554 9.858-1.477 62.601-5.097 81.334-25.704 0 0-98.341-27.014-94.89-31.45 3.455-4.434 22.184-31.779 25.017-38.922l59.767-14.781 46.708 14.782Z" fill="#fff" stroke="#000" stroke-width="5" stroke-miterlimit="10"/><path d="M456.156 654.259c12.937 23.894 12.693 33.503 27.479 53.209 14.787 19.708 33.591 18.639 37.534 38.346 3.943 19.707-21.514 38.517-93.484 36.052-71.965-2.462-104.807-11.578-123.476-4.743-18.671 6.836-14.788 21.619-28.096 16.999-13.31-4.62-11.461-29.932-5.917-36.769 5.546-6.838 14.974-9.239 25.881-6.465 10.904 2.771 32.286.923 42.143-.554 9.858-1.477 62.601-5.097 81.334-25.704 0 0-98.341-27.014-94.89-31.45 3.455-4.434 22.184-31.779 25.017-38.922l59.767-14.781 46.708 14.782Z" stroke="#000" stroke-width="5" stroke-miterlimit="10"/><path d="M322.128 751.973c-20.321-11.615-62.082-33.613-49.059-66.072 12.17-30.328 51.171-3.696 99.49 8.32 49.016 12.189 72.782 15.157 101.801 12.016 29.023-3.141 43.532-8.373 49.447-1.907 5.916 6.466 5.291 32.529-4.75 36.681-10.036 4.15-16.692-13.587-34.436-15.248-17.743-1.666-61.357 1.78-79.143 8.998-32.919 13.355-83.35 17.212-83.35 17.212Z" fill="#fff" stroke="#000" stroke-width="5" stroke-miterlimit="10"/><path d="M322.128 751.973c-20.321-11.615-62.082-33.613-49.059-66.072 12.17-30.328 51.171-3.696 99.49 8.32 49.016 12.189 72.782 15.157 101.801 12.016 29.023-3.141 43.532-8.373 49.447-1.907 5.916 6.466 5.291 32.529-4.75 36.681-10.036 4.15-16.692-13.587-34.436-15.248-17.743-1.666-61.357 1.78-79.143 8.998-32.919 13.355-83.35 17.212-83.35 17.212Z" stroke="#000" stroke-width="5" stroke-miterlimit="10"/><path d="M456.156 725.996s9.862-8.766 0-18.627Z" fill="#fff"/><path d="M456.156 725.996s9.862-8.766 0-18.627" stroke="#000" stroke-width="5" stroke-miterlimit="10"/><path d="M456.156 725.996s9.862-8.766 0-18.627M306.182 727.054c14.418 9.363 61.49 16.518 88.294 11.645" stroke="#000" stroke-width="5" stroke-miterlimit="10"/><path d="M305.163 640.817c-3.443-4.827-3.804-11.225-.865-16.377 11.991-21.029 40.794-64.092 48.15-71.538 8.651-8.76 20.111-31.67 20.111-31.67l-15.65-16.506c-10.104 3.204-27.356 6.899-38.449 36.95-10.409 28.215-30.592 56.86-43.833 76.569-2.338 3.479-3.64 7.56-3.545 11.753.263 11.654 7.29 34.464 50.876 57.925 0 0 4.806 7.206 12.016 14.412 7.211 7.207 31.23 24.479 26.431 5.034-4.8-19.446-33.641-36.263-33.641-36.263l-21.601-30.289Z" fill="#fff" stroke="#000" stroke-width="5" stroke-miterlimit="10"/><path d="M305.163 640.817c-3.443-4.827-3.804-11.225-.865-16.377 11.991-21.029 40.794-64.092 48.15-71.538 8.651-8.76 20.111-31.67 20.111-31.67l-15.65-16.506c-10.104 3.204-27.356 6.899-38.449 36.95-10.409 28.215-30.592 56.86-43.833 76.569-2.338 3.479-3.64 7.56-3.545 11.753.263 11.654 7.29 34.464 50.876 57.925 0 0 4.806 7.206 12.016 14.412 7.211 7.207 31.23 24.479 26.431 5.034-4.8-19.446-33.641-36.263-33.641-36.263l-21.601-30.289Z" stroke="#000" stroke-width="5" stroke-miterlimit="10"/><path d="M499.591 640.817c3.445-4.827 3.807-11.225.868-16.377-11.989-21.029-40.792-64.092-48.147-71.538-8.651-8.76-20.115-31.67-20.115-31.67l15.65-16.506c10.107 3.204 27.358 6.899 38.45 36.95 10.411 28.215 30.596 56.86 43.834 76.569 2.337 3.479 3.638 7.56 3.544 11.753-.263 11.654-7.286 34.464-50.875 57.925 0 0-4.807 7.206-12.017 14.412-7.211 7.207-31.23 24.479-26.428 5.034 4.797-19.446 33.637-36.263 33.637-36.263l21.599-30.289Z" fill="#fff" stroke="#000" stroke-width="5" stroke-miterlimit="10"/><path d="M499.591 640.817c3.445-4.827 3.807-11.225.868-16.377-11.989-21.029-40.792-64.092-48.147-71.538-8.651-8.76-20.115-31.67-20.115-31.67l15.65-16.506c10.107 3.204 27.358 6.899 38.45 36.95 10.411 28.215 30.596 56.86 43.834 76.569 2.337 3.479 3.638 7.56 3.544 11.753-.263 11.654-7.286 34.464-50.875 57.925 0 0-4.807 7.206-12.017 14.412-7.211 7.207-31.23 24.479-26.428 5.034 4.797-19.446 33.637-36.263 33.637-36.263l21.599-30.289Z" stroke="#000" stroke-width="5" stroke-miterlimit="10"/><path d="M453.344 552.902c-8.872-25.867-4.459-48.176-4.459-48.176s-10.229-2.71-22.059-11.948c-11.828-9.237-8.877-40.405-8.877-40.405s-.614.127-15.03.127c-14.419 0-15.18-.127-15.18-.127s3.1 31.169-8.73 40.405c-11.829 9.237-22.053 11.948-22.053 11.948s4.407 22.309-4.468 48.176c0 0 8.283 54.797-2.807 101.357 0 0 23.29 9.238 53.238 9.238 29.944 0 53.236-9.238 53.236-9.238-11.091-46.56-2.811-101.357-2.811-101.357Z" fill="#fff" stroke="#000" stroke-width="5" stroke-miterlimit="10"/><path d="M453.344 552.902c-8.872-25.867-4.459-48.176-4.459-48.176s-10.229-2.71-22.059-11.948c-11.828-9.237-8.877-40.405-8.877-40.405s-.614.127-15.03.127c-14.419 0-15.18-.127-15.18-.127s3.1 31.169-8.73 40.405c-11.829 9.237-22.053 11.948-22.053 11.948s4.407 22.309-4.468 48.176c0 0 8.283 54.797-2.807 101.357 0 0 23.29 9.238 53.238 9.238 29.944 0 53.236-9.238 53.236-9.238-11.091-46.56-2.811-101.357-2.811-101.357Z" stroke="#000" stroke-width="5" stroke-miterlimit="10"/><path d="M376.594 387.933c-17.339 35.93 10.034 79.084 25.786 79.293 15.749.206 44.252-42.213 27.864-78.587-10.331-22.928-42.718-23.356-53.65-.706Z" fill="#fff" stroke="#000" stroke-width="5" stroke-miterlimit="10"/><path d="M376.594 387.933c-17.339 35.93 10.034 79.084 25.786 79.293 15.749.206 44.252-42.213 27.864-78.587-10.331-22.928-42.718-23.356-53.65-.706Z" stroke="#000" stroke-width="5" stroke-miterlimit="10"/><path d="M504.543 431.194c-13.824-7.591-10.317-17.322-22.588-27.053-12.266-9.731-27.465-3.158-33.882-18.88-6.361-15.577-27.076-24.475-45.125-24.257h-.056c-18.053-.218-38.77 8.68-45.129 24.257-6.416 15.722-21.612 9.149-33.882 18.88-12.265 9.731-8.764 19.462-22.588 27.053-13.824 7.592-14.953 6.89-14.411 12.849.798 8.786 32.24 5.313 55.82 5.914 4.622.117 21.456 4.795 25.957 5.848 9.207 2.156 21.036 1.851 21.28-1.447.393-5.258-1.295-17.759-4.884-24.159-3.586-6.399-10.996-4.333-10.996-13.721 0-8.758 3.599-5.349 11.872-13.137 7.297-6.867 14.601-14.822 16.99-21.28 2.389 6.458 9.688 14.413 16.983 21.28 8.275 7.789 11.876 4.38 11.876 13.137 0 9.388-7.413 7.321-10.999 13.721-3.587 6.4-5.272 18.902-4.882 24.159.244 3.298 12.073 3.603 21.279 1.447 4.501-1.053 21.335-5.731 25.959-5.848 23.578-.601 55.019 2.872 55.817-5.914.54-5.959-.582-5.257-14.411-12.849Z" fill="#100200" stroke="#000" stroke-width="5" stroke-miterlimit="10"/><path d="M368.734 499.794s12.838 19.316 34.368 19.316c21.527 0 34.366-19.316 34.366-19.316" stroke="#000" stroke-width="5" stroke-miterlimit="10"/><path d="M330.525 751.973s-10.014 13.768 0 22.889Z" fill="#fff"/><path d="M330.525 751.973s-10.014 13.768 0 22.889" stroke="#000" stroke-width="5" stroke-miterlimit="10"/><path d="M330.525 751.973s-10.014 13.768 0 22.889" stroke="#000" stroke-width="5" stroke-miterlimit="10"/></svg>

<svg width="800" height="800" viewBox="0 0 800 800" fill="none" xmlns="http://www.w3.org/2000/svg">
<path d="M456.156 654.259C469.093 678.153 468.849 687.762 483.635 707.468C498.422 727.176 517.226 726.107 521.169 745.814C525.112 765.521 499.655 784.331 427.685 781.866C355.72 779.404 322.878 770.288 304.209 777.123C285.538 783.959 289.421 798.742 276.113 794.122C262.803 789.502 264.652 764.19 270.196 757.353C275.742 750.515 285.17 748.114 296.077 750.888C306.981 753.659 328.363 751.811 338.22 750.334C348.078 748.857 400.821 745.237 419.554 724.63C419.554 724.63 321.213 697.616 324.664 693.18C328.119 688.746 346.848 661.401 349.681 654.258L409.448 639.477L456.156 654.259Z" fill="white" stroke="black" stroke-width="5" stroke-miterlimit="10"/>
<path d="M456.156 654.259C469.093 678.153 468.849 687.762 483.635 707.468C498.422 727.176 517.226 726.107 521.169 745.814C525.112 765.521 499.655 784.331 427.685 781.866C355.72 779.404 322.878 770.288 304.209 777.123C285.538 783.959 289.421 798.742 276.113 794.122C262.803 789.502 264.652 764.19 270.196 757.353C275.742 750.515 285.17 748.114 296.077 750.888C306.981 753.659 328.363 751.811 338.22 750.334C348.078 748.857 400.821 745.237 419.554 724.63C419.554 724.63 321.213 697.616 324.664 693.18C328.119 688.746 346.848 661.401 349.681 654.258L409.448 639.477L456.156 654.259Z" stroke="black" stroke-width="5" stroke-miterlimit="10"/>
<path d="M322.128 751.973C301.807 740.358 260.046 718.36 273.069 685.901C285.239 655.573 324.24 682.205 372.559 694.221C421.575 706.41 445.341 709.378 474.36 706.237C503.383 703.096 517.892 697.864 523.807 704.33C529.723 710.796 529.098 736.859 519.057 741.011C509.021 745.161 502.365 727.424 484.621 725.763C466.878 724.097 423.264 727.543 405.478 734.761C372.559 748.116 322.128 751.973 322.128 751.973Z" fill="white" stroke="black" stroke-width="5" stroke-miterlimit="10"/>
<path d="M322.128 751.973C301.807 740.358 260.046 718.36 273.069 685.901C285.239 655.573 324.24 682.205 372.559 694.221C421.575 706.41 445.341 709.378 474.36 706.237C503.383 703.096 517.892 697.864 523.807 704.33C529.723 710.796 529.098 736.859 519.057 741.011C509.021 745.161 502.365 727.424 484.621 725.763C466.878 724.097 423.264 727.543 405.478 734.761C372.559 748.116 322.128 751.973 322.128 751.973Z" stroke="black" stroke-width="5" stroke-miterlimit="10"/>
<path d="M456.156 725.996C456.156 725.996 466.018 717.23 456.156 707.369Z" fill="white"/>
<path d="M456.156 725.996C456.156 725.996 466.018 717.23 456.156 707.369" stroke="black" stroke-width="5" stroke-miterlimit="10"/>
<path d="M456.156 725.996C456.156 725.996 466.018 717.23 456.156 707.369" stroke="black" stroke-width="5" stroke-miterlimit="10"/>
<path d="M306.182 727.054C320.6 736.417 367.672 743.572 394.476 738.699" stroke="black" stroke-width="5" stroke-miterlimit="10"/>
<path d="M305.163 640.817C301.72 635.99 301.359 629.592 304.298 624.44C316.289 603.411 345.092 560.348 352.448 552.902C361.099 544.142 372.559 521.232 372.559 521.232L356.909 504.726C346.805 507.93 329.553 511.625 318.46 541.676C308.051 569.891 287.868 598.536 274.627 618.245C272.289 621.724 270.987 625.805 271.082 629.998C271.345 641.652 278.372 664.462 321.958 687.923C321.958 687.923 326.764 695.129 333.974 702.335C341.185 709.542 365.204 726.814 360.405 707.369C355.605 687.923 326.764 671.106 326.764 671.106L305.163 640.817Z" fill="white" stroke="black" stroke-width="5" stroke-miterlimit="10"/>
<path d="M305.163 640.817C301.72 635.99 301.359 629.592 304.298 624.44C316.289 603.411 345.092 560.348 352.448 552.902C361.099 544.142 372.559 521.232 372.559 521.232L356.909 504.726C346.805 507.93 329.553 511.625 318.46 541.676C308.051 569.891 287.868 598.536 274.627 618.245C272.289 621.724 270.987 625.805 271.082 629.998C271.345 641.652 278.372 664.462 321.958 687.923C321.958 687.923 326.764 695.129 333.974 702.335C341.185 709.542 365.204 726.814 360.405 707.369C355.605 687.923 326.764 671.106 326.764 671.106L305.163 640.817Z" stroke="black" stroke-width="5" stroke-miterlimit="10"/>
<path d="M499.591 640.817C503.036 635.99 503.398 629.592 500.459 624.44C488.47 603.411 459.667 560.348 452.312 552.902C443.661 544.142 432.197 521.232 432.197 521.232L447.847 504.726C457.954 507.93 475.205 511.625 486.297 541.676C496.708 569.891 516.893 598.536 530.131 618.245C532.468 621.724 533.769 625.805 533.675 629.998C533.412 641.652 526.389 664.462 482.8 687.923C482.8 687.923 477.993 695.129 470.783 702.335C463.572 709.542 439.553 726.814 444.355 707.369C449.152 687.923 477.992 671.106 477.992 671.106L499.591 640.817Z" fill="white" stroke="black" stroke-width="5" stroke-miterlimit="10"/>
<path d="M499.591 640.817C503.036 635.99 503.398 629.592 500.459 624.44C488.47 603.411 459.667 560.348 452.312 552.902C443.661 544.142 432.197 521.232 432.197 521.232L447.847 504.726C457.954 507.93 475.205 511.625 486.297 541.676C496.708 569.891 516.893 598.536 530.131 618.245C532.468 621.724 533.769 625.805 533.675 629.998C533.412 641.652 526.389 664.462 482.8 687.923C482.8 687.923 477.993 695.129 470.783 702.335C463.572 709.542 439.553 726.814 444.355 707.369C449.152 687.923 477.992 671.106 477.992 671.106L499.591 640.817Z" stroke="black" stroke-width="5" stroke-miterlimit="10"/>
<path d="M453.344 552.902C444.472 527.035 448.885 504.726 448.885 504.726C448.885 504.726 438.656 502.016 426.826 492.778C414.998 483.541 417.949 452.373 417.949 452.373C417.949 452.373 417.335 452.5 402.919 452.5C388.5 452.5 387.739 452.373 387.739 452.373C387.739 452.373 390.839 483.542 379.009 492.778C367.18 502.015 356.956 504.726 356.956 504.726C356.956 504.726 361.363 527.035 352.488 552.902C352.488 552.902 360.771 607.699 349.681 654.259C349.681 654.259 372.971 663.497 402.919 663.497C432.863 663.497 456.155 654.259 456.155 654.259C445.064 607.699 453.344 552.902 453.344 552.902Z" fill="white" stroke="black" stroke-width="5" stroke-miterlimit="10"/>
<path d="M453.344 552.902C444.472 527.035 448.885 504.726 448.885 504.726C448.885 504.726 438.656 502.016 426.826 492.778C414.998 483.541 417.949 452.373 417.949 452.373C417.949 452.373 417.335 452.5 402.919 452.5C388.5 452.5 387.739 452.373 387.739 452.373C387.739 452.373 390.839 483.542 379.009 492.778C367.18 502.015 356.956 504.726 356.956 504.726C356.956 504.726 361.363 527.035 352.488 552.902C352.488 552.902 360.771 607.699 349.681 654.259C349.681 654.259 372.971 663.497 402.919 663.497C432.863 663.497 456.155 654.259 456.155 654.259C445.064 607.699 453.344 552.902 453.344 552.902Z" stroke="black" stroke-width="5" stroke-miterlimit="10"/>
<path d="M376.594 387.933C359.255 423.863 386.628 467.017 402.38 467.226C418.129 467.432 446.632 425.013 430.244 388.639C419.913 365.711 387.526 365.283 376.594 387.933Z" fill="white" stroke="black" stroke-width="5" stroke-miterlimit="10"/>
<path d="M376.594 387.933C359.255 423.863 386.628 467.017 402.38 467.226C418.129 467.432 446.632 425.013 430.244 388.639C419.913 365.711 387.526 365.283 376.594 387.933Z" stroke="black" stroke-width="5" stroke-miterlimit="10"/>
<path d="M504.543 431.194C490.719 423.603 494.226 413.872 481.955 404.141C469.689 394.41 454.49 400.983 448.073 385.261C441.712 369.684 420.997 360.786 402.948 361.004H402.92H402.892C384.839 360.786 364.122 369.684 357.763 385.261C351.347 400.983 336.151 394.41 323.881 404.141C311.616 413.872 315.117 423.603 301.293 431.194C287.469 438.786 286.34 438.084 286.882 444.043C287.68 452.829 319.122 449.356 342.702 449.957C347.324 450.074 364.158 454.752 368.659 455.805C377.866 457.961 389.695 457.656 389.939 454.358C390.332 449.1 388.644 436.599 385.055 430.199C381.469 423.8 374.059 425.866 374.059 416.478C374.059 407.72 377.658 411.129 385.931 403.341C393.228 396.474 400.532 388.519 402.921 382.061C405.31 388.519 412.609 396.474 419.904 403.341C428.179 411.13 431.78 407.721 431.78 416.478C431.78 425.866 424.367 423.799 420.781 430.199C417.194 436.599 415.509 449.101 415.899 454.358C416.143 457.656 427.972 457.961 437.178 455.805C441.679 454.752 458.513 450.074 463.137 449.957C486.715 449.356 518.156 452.829 518.954 444.043C519.494 438.084 518.372 438.786 504.543 431.194Z" fill="#100200" stroke="black" stroke-width="5" stroke-miterlimit="10"/>
<path d="M368.734 499.794C368.734 499.794 381.572 519.11 403.102 519.11C424.629 519.11 437.468 499.794 437.468 499.794" stroke="black" stroke-width="5" stroke-miterlimit="10"/>
<path d="M330.525 751.973C330.525 751.973 320.511 765.741 330.525 774.862Z" fill="white"/>
<path d="M330.525 751.973C330.525 751.973 320.511 765.741 330.525 774.862" stroke="black" stroke-width="5" stroke-miterlimit="10"/>
<path d="M330.525 751.973C330.525 751.973 320.511 765.741 330.525 774.862" stroke="black" stroke-width="5" stroke-miterlimit="10"/>
</svg>
